src/assets/icons/Script.svg

<svg width="19" height="19" viewBox="0 0 19 19" fill="none" xmlns="http://www.w3.org/2000/svg">
<path d="M12.0742 16.8216H3.16797C2.69555 16.8216 2.24248 16.6339 1.90843 16.2999C1.57439 15.9658 1.38672 15.5128 1.38672 15.0404V14.0508C1.38672 13.7358 1.51183 13.4338 1.73453 13.2111C1.95723 12.9884 2.25927 12.8633 2.57422 12.8633H3.76172M12.0742 16.8216C12.5991 16.8216 13.1025 16.6131 13.4737 16.2419C13.8449 15.8708 14.0534 15.3674 14.0534 14.8424V6.13411M12.0742 16.8216C11.5493 16.8216 11.0459 16.6131 10.6747 16.2419C10.3036 15.8708 10.0951 15.3674 10.0951 14.8424V13.6549C10.0951 13.445 10.0116 13.2436 9.86318 13.0952C9.71471 12.9467 9.51335 12.8633 9.30339 12.8633H3.76172M3.76172 12.8633V4.94661C3.76172 4.21174 4.05365 3.50697 4.57328 2.98734C5.09291 2.46771 5.79768 2.17578 6.53255 2.17578H15.9344M14.0534 6.13411H16.8242C17.0342 6.13411 17.2355 6.05071 17.384 5.90224C17.5325 5.75377 17.6159 5.55241 17.6159 5.34245V3.95703C17.6159 3.48461 17.4282 3.03155 17.0942 2.6975C16.7601 2.36345 16.3071 2.17578 15.8346 2.17578C15.3622 2.17578 14.9092 2.36345 14.5751 2.6975C14.2411 3.03155 14.0534 3.48461 14.0534 3.95703V6.13411ZM6.73047 5.73828H11.4805M6.73047 8.90495H9.89713" stroke="black" stroke-width="1.5" stroke-linecap="round" stroke-linejoin="round"/>
</svg>

<svg xmlns="http://www.w3.org/2000/svg" width="19" height="19" fill="none" viewBox="0 0 19 19"><path stroke="#000" stroke-linecap="round" stroke-linejoin="round" stroke-width="1.5" d="M12.074 16.822H3.168a1.78 1.78 0 0 1-1.781-1.782v-.99a1.187 1.187 0 0 1 1.187-1.187h1.188m8.312 3.959a1.98 1.98 0 0 0 1.98-1.98V6.134m-1.98 10.688a1.98 1.98 0 0 1-1.979-1.98v-1.187a.79.79 0 0 0-.792-.792H3.762m0 0V4.947a2.77 2.77 0 0 1 2.77-2.771h9.402m-1.88 3.958h2.77a.79.79 0 0 0 .792-.792V3.957a1.781 1.781 0 0 0-3.563 0zM6.73 5.738h4.75M6.73 8.905h3.167"/></svg>
